X: 1
T:Vento's Farewell. WCl.57
M:6/8
L:1/8
Q:120
S:William Clarke MS,Lincoln,1770.
R:Jig
O:Lincoln
A:England
Z:vmp.Barry Callaghan
K:A
e2ce2c|A2A ABc|d2Bd2B|GAB E3|!
e2ca2e|f2da2f|efe dcB|A3-A3::!
GBd dBG|Ace ecA|GBd dBG|Ace ecA|!
f2da2f|e2ca2f|efe dcB|A3A3:||
